; generated by Slic3r 1.1.7 on 2015-04-17 at 14:37:28

; perimeters extrusion width = 0.50mm
; infill extrusion width = 0.52mm
; solid infill extrusion width = 0.52mm
; top infill extrusion width = 0.52mm

G21 ; set units to millimeters
M190 S60 ; wait for bed temperature to be reached
M104 S185 ; set temperature
M106 S255
G28 ; home all axes
G1 Z5 F5000 ; lift nozzle

M109 S185 ; wait for temperature to be reached
G90 ; use absolute coordinates
G92 E0
M82 ; use absolute distances for extrusion
M106 S255
G1 F1800.000 E-1.00000
G92 E0
G1 Z0.350 F7800.000
G1 X45.387 Y60.255 F7800.000
G1 E1.00000 F1800.000
G1 X47.542 Y59.453 E1.07480 F1080.000
G1 X48.750 Y59.343 E1.11426
G1 X151.250 Y59.343 E4.44911
G1 X153.515 Y59.740 E4.52391
G1 X155.509 Y60.884 E4.59871 F1080.000
G1 X156.995 Y62.637 E4.67352
G1 X157.797 Y64.792 E4.74832
G1 X157.907 Y66.000 E4.78777
G1 X157.907 Y134.000 E7.00016
G1 X157.510 Y136.265 E7.07497
G1 X156.366 Y138.259 E7.14977
G1 X154.613 Y139.745 E7.22457
G1 X152.458 Y140.547 E7.29937
G1 X151.250 Y140.657 E7.33882
G1 X48.750 Y140.657 E10.67368
G1 X46.485 Y140.260 E10.74848
G1 X44.491 Y139.116 E10.82328
G1 X43.005 Y137.363 E10.89808
G1 X42.203 Y135.208 E10.97288
G1 X42.093 Y134.000 E11.01234
G1 X42.093 Y66.000 E13.22473
G1 X42.490 Y63.735 E13.29953
G1 X43.634 Y61.741 E13.37433
G1 X45.330 Y60.303 E13.44669
G1 F1800.000 E12.44669
G92 E0
G1 X137.372 Y125.664 F7800.000
G1 E1.00000 F1800.000
G1 X108.336 Y125.664 E1.94471 F540.000
G1 X108.336 Y74.336 E3.61469
G1 X131.872 Y74.336 E4.38045
G1 X131.872 Y73.909 E4.39433
G1 X135.849 Y72.617 E4.53038
G1 X137.723 Y75.196 E4.63408
G1 X138.086 Y75.078 E4.64650
G1 X138.086 Y74.336 E4.67064
G1 X142.914 Y74.336 E4.82773
G1 X142.914 Y120.664 E6.33503
G1 X141.383 Y120.664 E6.38483
G1 X143.807 Y124.000 E6.51899
G1 X141.349 Y127.383 E6.65504
G1 X137.372 Y126.091 E6.79108
G1 X137.372 Y125.739 E6.80252
G1 X136.257 Y120.007 F7800.000
G1 X136.257 Y125.007 E6.96520 F540.000
G1 X108.993 Y125.007 E7.85224
G1 X108.993 Y74.993 E9.47946
G1 X130.757 Y74.993 E10.18757
G1 X130.757 Y79.993 E10.35024
G1 X138.743 Y79.993 E10.61006
G1 X138.743 Y74.993 E10.77274
G1 X142.257 Y74.993 E10.88707
G1 X142.257 Y120.007 E12.35162
G1 X136.332 Y120.007 E12.54439
G1 X135.600 Y119.350 F7800.000
G1 X135.600 Y124.350 E12.70706 F378.000
G1 X109.650 Y124.350 E13.55135
G1 X109.650 Y75.650 E15.13582
G1 X130.100 Y75.650 E15.80116
G1 X130.100 Y80.650 E15.96384
G1 X139.400 Y80.650 E16.26642
G1 X139.400 Y75.650 E16.42909
G1 X141.600 Y75.650 E16.50067
G1 X141.600 Y119.350 E17.92246
G1 X135.675 Y119.350 E18.11523
G1 X135.850 Y119.783 F7800.000
G1 F1800.000 E17.11523
G92 E0
G1 X135.598 Y78.611 F7800.000
G1 E1.00000 F1800.000
G1 X132.529 Y77.613 E1.10498 F540.000
G1 X132.529 Y74.387 E1.20996
G1 X135.598 Y73.389 E1.31494
G1 X137.495 Y76.000 E1.41993
G1 X135.642 Y78.550 E1.52247
G1 X135.347 Y77.838 F7800.000
G1 X133.186 Y77.136 E1.59639 F378.000
G1 X133.186 Y74.864 E1.67031
G1 X135.347 Y74.162 E1.74422
G1 X136.683 Y76.000 E1.81814
G1 X135.391 Y77.777 E1.88962
G1 X135.144 Y78.295 F7800.000
G1 F1800.000 E0.88962
G92 E0
G1 X141.098 Y121.390 F7800.000
G1 E1.00000 F1800.000
G1 X142.995 Y124.000 E1.10498 F540.000
G1 X141.098 Y126.610 E1.20997
G1 X138.029 Y125.613 E1.31495
G1 X138.029 Y122.387 E1.41993
G1 X141.027 Y121.413 E1.52247
G1 X140.847 Y122.162 F7800.000
G1 X142.183 Y124.000 E1.59639 F378.000
G1 X140.847 Y125.838 E1.67031
G1 X138.686 Y125.136 E1.74422
G1 X138.686 Y122.864 E1.81814
G1 X140.776 Y122.185 E1.88962
G1 X141.280 Y121.912 F7800.000
G1 F1800.000 E0.88962
G92 E0
G1 X62.086 Y124.922 F7800.000
G1 E1.00000 F1800.000
G1 X61.723 Y124.804 E1.01243 F540.000
G1 X59.849 Y127.383 E1.11613
G1 X55.872 Y126.091 E1.25217
G1 X55.872 Y121.909 E1.38822
G1 X58.339 Y121.108 E1.47262
G1 X58.269 Y120.664 E1.48723
G1 X57.086 Y120.664 E1.52573
G1 X57.086 Y79.336 E2.87035
G1 X59.269 Y79.336 E2.94139
G1 X59.339 Y78.892 E2.95600
G1 X56.872 Y78.091 E3.04040
G1 X56.872 Y73.909 E3.17645
G1 X60.849 Y72.617 E3.31249
G1 X62.723 Y75.196 E3.41619
G1 X63.086 Y75.078 E3.42862
G1 X63.086 Y74.336 E3.45275
G1 X91.664 Y74.336 E4.38255
G1 X91.664 Y125.664 E6.05253
G1 X62.086 Y125.664 E7.01487
G1 X62.086 Y124.997 E7.03656
G1 F1800.000 E6.03656
G92 E0
G1 X60.598 Y78.611 F7800.000
G1 E1.00000 F1800.000
G1 X57.529 Y77.613 E1.10498 F540.000
G1 X57.529 Y74.387 E1.20996
G1 X60.598 Y73.390 E1.31494
G1 X62.495 Y76.000 E1.41993
G1 X60.642 Y78.550 E1.52247
G1 X60.347 Y77.838 F7800.000
G1 X58.186 Y77.136 E1.59639 F378.000
G1 X58.186 Y74.864 E1.67031
G1 X60.347 Y74.162 E1.74422
G1 X61.683 Y76.000 E1.81814
G1 X60.391 Y77.777 E1.88962
G1 X60.144 Y78.295 F7800.000
G1 X63.743 Y79.993 F7800.000
G1 X63.743 Y74.993 E2.05230 F540.000
G1 X91.007 Y74.993 E2.93934
G1 X91.007 Y125.007 E4.56656
G1 X62.743 Y125.007 E5.48614
G1 X62.743 Y120.007 E5.64882
G1 X57.743 Y120.007 E5.81150
G1 X57.743 Y79.993 E7.11337
G1 X63.668 Y79.993 E7.30614
G1 X64.400 Y80.650 F7800.000
G1 X64.400 Y75.650 E7.46881 F378.000
G1 X90.350 Y75.650 E8.31310
G1 X90.350 Y124.350 E9.89757
G1 X63.400 Y124.350 E10.77439
G1 X63.400 Y119.350 E10.93707
G1 X58.400 Y119.350 E11.09974
G1 X58.400 Y80.650 E12.35885
G1 X64.325 Y80.650 E12.55163
G1 X64.150 Y80.217 F7800.000
G1 F1800.000 E11.55163
G92 E0
G1 X59.598 Y121.390 F7800.000
G1 E1.00000 F1800.000
G1 X61.495 Y124.000 E1.10498 F540.000
G1 X59.598 Y126.610 E1.20997
G1 X56.529 Y125.613 E1.31495
G1 X56.529 Y122.387 E1.41993
G1 X59.527 Y121.413 E1.52247
G1 X59.347 Y122.162 F7800.000
G1 X60.683 Y124.000 E1.59639 F378.000
G1 X59.347 Y125.838 E1.67031
G1 X57.186 Y125.136 E1.74423
G1 X57.186 Y122.864 E1.81815
G1 X59.276 Y122.185 E1.88962
G1 X59.780 Y121.912 F7800.000
G1 X59.883 Y120.664 F7800.000
G1 X62.086 Y120.664 E1.96128 F540.000
G1 X62.086 Y123.078 E2.03980
G1 X61.723 Y123.196 E2.05223
G1 X59.927 Y120.725 E2.15160
G1 F1800.000 E1.15160
G92 E0
G1 X60.883 Y79.336 F7800.000
G1 E1.00000 F1800.000
G1 X62.723 Y76.804 E1.10181 F540.000
G1 X63.086 Y76.922 E1.11423
G1 X63.086 Y79.336 E1.19275
G1 X60.958 Y79.336 E1.26197
G1 F1800.000 E0.26197
G92 E0
G1 X131.414 Y79.336 F7800.000
G1 E1.00000 F1800.000
G1 X131.414 Y77.942 E1.04535 F540.000
G1 X134.339 Y78.892 E1.14543
G1 X134.269 Y79.336 E1.16004
G1 X131.489 Y79.336 E1.25049
G1 X135.883 Y79.336 F7800.000
G1 X137.723 Y76.804 E1.35229 F540.000
G1 X138.086 Y76.922 E1.36472
G1 X138.086 Y79.336 E1.44324
G1 X135.958 Y79.336 E1.51246
G1 F1800.000 E0.51246
G92 E0
G1 X136.914 Y120.664 F7800.000
G1 E1.00000 F1800.000
G1 X139.769 Y120.664 E1.09289 F540.000
G1 X139.839 Y121.108 E1.10750
G1 X136.914 Y122.058 E1.20757
G1 X136.914 Y120.739 E1.25048
G1 F1800.000 E0.25048
G92 E0
G1 X149.586 Y132.336 F7800.000
G1 E1.00000 F1800.000
G1 X50.414 Y132.336 E4.22657 F540.000
G1 X50.414 Y67.664 E6.33068
G1 X149.586 Y67.664 E9.55725
G1 X149.586 Y132.261 E11.65892
G1 X150.243 Y132.993 F7800.000
G1 X49.757 Y132.993 E14.92825 F540.000
G1 X49.757 Y67.007 E17.07511
G1 X150.243 Y67.007 E20.34444
G1 X150.243 Y132.918 E22.48886
G1 X150.900 Y133.650 F7800.000
G1 X49.100 Y133.650 E25.80094 F378.000
G1 X49.100 Y66.350 E27.99056
G1 X150.900 Y66.350 E31.30265
G1 X150.900 Y133.575 E33.48983
G1 X150.467 Y133.400 F7800.000
G1 X149.129 Y127.724 F7800.000
G1 X142.526 Y121.121 E33.79366 F1080.000
G1 X143.371 Y121.034 F7800.000
G1 X149.129 Y126.793 E34.05864 F1080.000
G1 X149.129 Y125.863 E34.08892
G1 X143.371 Y120.104 E34.35390
G1 X143.371 Y119.173 E34.38418
G1 X149.129 Y124.932 E34.64916
G1 X149.129 Y124.001 E34.67944
G1 X143.371 Y118.242 E34.94442
G1 X143.371 Y117.312 E34.97470
G1 X149.129 Y123.071 E35.23968
G1 X149.129 Y122.140 E35.26996
G1 X143.371 Y116.381 E35.53494
G1 X143.371 Y115.450 E35.56522
G1 X149.129 Y121.209 E35.83020
G1 X149.129 Y120.278 E35.86048
G1 X143.371 Y114.520 E36.12546
G1 X143.371 Y113.589 E36.15574
G1 X149.129 Y119.348 E36.42071
G1 X149.129 Y118.417 E36.45099
G1 X143.371 Y112.658 E36.71597
G1 X143.371 Y111.727 E36.74625
G1 X149.129 Y117.486 E37.01123
G1 X149.129 Y116.556 E37.04151
G1 X143.371 Y110.797 E37.30649
G1 X143.371 Y109.866 E37.33677
G1 X149.129 Y115.625 E37.60175
G1 X149.129 Y114.694 E37.63203
G1 X143.371 Y108.935 E37.89701
G1 X143.371 Y108.005 E37.92729
G1 X149.129 Y113.764 E38.19227
G1 X149.129 Y112.833 E38.22255
G1 X143.371 Y107.074 E38.48753
G1 X143.371 Y106.143 E38.51781
G1 X149.129 Y111.902 E38.78279
G1 X149.129 Y110.972 E38.81307
G1 X143.371 Y105.213 E39.07805
G1 X143.371 Y104.282 E39.10833
G1 X149.129 Y110.041 E39.37331
G1 X149.129 Y109.110 E39.40359
G1 X143.371 Y103.351 E39.66857
G1 X143.371 Y102.421 E39.69885
G1 X149.129 Y108.180 E39.96383
G1 X149.129 Y107.249 E39.99411
G1 X143.371 Y101.490 E40.25909
G1 X143.371 Y100.559 E40.28937
G1 X149.129 Y106.318 E40.55434
G1 X149.129 Y105.388 E40.58462
G1 X143.371 Y99.629 E40.84960
G1 X143.371 Y98.698 E40.87988
G1 X149.129 Y104.457 E41.14486
G1 X149.129 Y103.526 E41.17514
G1 X143.371 Y97.767 E41.44012
G1 X143.371 Y96.837 E41.47040
G1 X149.129 Y102.596 E41.73538
G1 X149.129 Y101.665 E41.76566
G1 X143.371 Y95.906 E42.03064
G1 X143.371 Y94.975 E42.06092
G1 X149.129 Y100.734 E42.32590
G1 X149.129 Y99.804 E42.35618
G1 X143.371 Y94.045 E42.62116
G1 X143.371 Y93.114 E42.65144
G1 X149.129 Y98.873 E42.91642
G1 X149.129 Y97.942 E42.94670
G1 X143.371 Y92.183 E43.21168
G1 X143.371 Y91.253 E43.24196
G1 X149.129 Y97.012 E43.50694
G1 X149.129 Y96.081 E43.53722
G1 X143.371 Y90.322 E43.80220
G1 X143.371 Y89.391 E43.83248
G1 X149.129 Y95.150 E44.09746
G1 X149.129 Y94.219 E44.12774
G1 X143.371 Y88.461 E44.39272
G1 X143.371 Y87.530 E44.42300
G1 X149.129 Y93.289 E44.68797
G1 X149.129 Y92.358 E44.71825
G1 X143.371 Y86.599 E44.98323
G1 X143.371 Y85.669 E45.01351
G1 X149.129 Y91.427 E45.27849
G1 X149.129 Y90.497 E45.30877
G1 X143.371 Y84.738 E45.57375
G1 X143.371 Y83.807 E45.60403
G1 X149.129 Y89.566 E45.86901
G1 X149.129 Y88.635 E45.89929
G1 X143.371 Y82.876 E46.16427
G1 X143.371 Y81.946 E46.19455
G1 X149.129 Y87.705 E46.45953
G1 X149.129 Y86.774 E46.48981
G1 X143.371 Y81.015 E46.75479
G1 X143.371 Y80.084 E46.78507
G1 X149.129 Y85.843 E47.05005
G1 X149.129 Y84.913 E47.08033
G1 X143.371 Y79.154 E47.34531
G1 X143.371 Y78.223 E47.37559
G1 X149.129 Y83.982 E47.64057
G1 X149.129 Y83.051 E47.67085
G1 X143.371 Y77.292 E47.93583
G1 X143.371 Y76.362 E47.96611
G1 X149.129 Y82.121 E48.23109
G1 X149.129 Y81.190 E48.26137
G1 X143.371 Y75.431 E48.52635
G1 X143.371 Y74.500 F7800.000
G1 X149.129 Y80.259 E48.79132 F1080.000
G1 X149.129 Y79.329 E48.82160
G1 X137.921 Y68.121 E49.33731
G1 X138.852 Y68.121 E49.36759
G1 X149.129 Y78.398 E49.84047
G1 X149.129 Y77.467 E49.87075
G1 X139.783 Y68.121 E50.30081
G1 X140.713 Y68.121 E50.33109
G1 X149.129 Y76.537 E50.71833
G1 X149.129 Y75.606 E50.74861
G1 X141.644 Y68.121 E51.09303
G1 X142.575 Y68.121 E51.12331
G1 X149.129 Y74.675 E51.42491
G1 X149.129 Y73.745 E51.45519
G1 X143.505 Y68.121 E51.71396
G1 X144.436 Y68.121 E51.74424
G1 X149.129 Y72.814 E51.96019
G1 X149.129 Y71.883 E51.99047
G1 X145.367 Y68.121 E52.16360
G1 X146.297 Y68.121 E52.19388
G1 X149.129 Y70.953 E52.32418
G1 X149.129 Y70.022 E52.35446
G1 X147.228 Y68.121 E52.44195
G1 X148.159 Y68.121 E52.47223
G1 X149.129 Y69.091 E52.51689
G1 X149.129 Y68.161 E52.54717
G1 X149.089 Y68.121 E52.54901
G1 X142.750 Y73.879 F7800.000
G1 X136.991 Y68.121 E52.81399 F1080.000
G1 X136.060 Y68.121 E52.84427
G1 X141.819 Y73.879 E53.10925
G1 X140.888 Y73.879 E53.13953
G1 X135.129 Y68.121 E53.40451
G1 X134.199 Y68.121 E53.43479
G1 X139.958 Y73.879 E53.69977
G1 X139.027 Y73.879 E53.73005
G1 X133.268 Y68.121 E53.99503
G1 X132.337 Y68.121 E54.02531
G1 X138.096 Y73.879 E54.29029
G1 X135.528 Y72.242 F7800.000
G1 X131.407 Y68.121 E54.47991 F1080.000
G1 X130.476 Y68.121 E54.51019
G1 X134.825 Y72.470 E54.71031
G1 X134.123 Y72.698 E54.73434
G1 X129.545 Y68.121 E54.94497
G1 X128.615 Y68.121 E54.97525
G1 X133.420 Y72.926 E55.19637
G1 X132.718 Y73.155 E55.22040
G1 X127.684 Y68.121 E55.45203
G1 X126.753 Y68.121 E55.48231
G1 X132.016 Y73.383 E55.72444
G1 X131.416 Y73.714 E55.74672
G1 X125.823 Y68.121 E56.00409
G1 X124.892 Y68.121 E56.03437
G1 X130.651 Y73.879 E56.29935
G1 X129.720 Y73.879 E56.32963
G1 X123.961 Y68.121 E56.59461
G1 X123.031 Y68.121 E56.62489
G1 X128.789 Y73.879 E56.88987
G1 X127.859 Y73.879 E56.92015
G1 X122.100 Y68.121 E57.18512
G1 X121.169 Y68.121 E57.21540
G1 X126.928 Y73.879 E57.48038
G1 X125.997 Y73.879 E57.51066
G1 X120.238 Y68.121 E57.77564
G1 X119.308 Y68.121 E57.80592
G1 X125.067 Y73.879 E58.07090
G1 X124.136 Y73.879 E58.10118
G1 X118.377 Y68.121 E58.36616
G1 X117.446 Y68.121 E58.39644
G1 X123.205 Y73.879 E58.66142
G1 X122.275 Y73.879 E58.69170
G1 X116.516 Y68.121 E58.95668
G1 X115.585 Y68.121 E58.98696
G1 X121.344 Y73.879 E59.25194
G1 X120.413 Y73.879 E59.28222
G1 X114.654 Y68.121 E59.54720
G1 X113.724 Y68.121 E59.57748
G1 X119.483 Y73.879 E59.84246
G1 X118.552 Y73.879 E59.87274
G1 X112.793 Y68.121 E60.13772
G1 X111.862 Y68.121 E60.16800
G1 X117.621 Y73.879 E60.43298
G1 X116.691 Y73.879 E60.46326
G1 X110.932 Y68.121 E60.72824
G1 X110.001 Y68.121 E60.75852
G1 X115.760 Y73.879 E61.02350
G1 X114.829 Y73.879 E61.05378
G1 X109.070 Y68.121 E61.31876
G1 X108.140 Y68.121 E61.34904
G1 X113.899 Y73.879 E61.61402
G1 X112.968 Y73.879 E61.64430
G1 X107.209 Y68.121 E61.90928
G1 X106.278 Y68.121 E61.93956
G1 X112.037 Y73.879 E62.20454
G1 X111.107 Y73.879 E62.23482
G1 X105.348 Y68.121 E62.49980
G1 X104.417 Y68.121 E62.53008
G1 X110.176 Y73.879 E62.79506
G1 X109.245 Y73.879 E62.82534
G1 X103.486 Y68.121 E63.09032
G1 X102.556 Y68.121 E63.12059
G1 X108.315 Y73.879 E63.38557
G1 X107.879 Y74.375 E63.40703
G1 X101.625 Y68.121 E63.69481
G1 X100.694 Y68.121 E63.72509
G1 X107.879 Y75.306 E64.05570
G1 X107.879 Y76.236 E64.08598
G1 X99.764 Y68.121 E64.45941
G1 X98.833 Y68.121 E64.48969
G1 X107.879 Y77.167 E64.90594
G1 X107.879 Y78.098 E64.93622
G1 X97.902 Y68.121 E65.39529
G1 X96.972 Y68.121 E65.42557
G1 X107.879 Y79.028 E65.92746
G1 X107.879 Y79.959 E65.95774
G1 X96.041 Y68.121 E66.50246
G1 X95.110 Y68.121 E66.53274
G1 X107.879 Y80.890 E67.12028
G1 X107.879 Y81.821 E67.15056
G1 X94.179 Y68.121 E67.78092
G1 X93.249 Y68.121 E67.81120
G1 X107.879 Y82.751 E68.48438
G1 X107.879 Y83.682 E68.51466
G1 X92.318 Y68.121 E69.23066
G1 X91.387 Y68.121 E69.26094
G1 X107.879 Y84.613 E70.01977
G1 X107.879 Y85.543 E70.05005
G1 X90.457 Y68.121 E70.85170
G1 X89.526 Y68.121 E70.88198
G1 X107.879 Y86.474 E71.72645
G1 X107.879 Y87.405 E71.75673
G1 X88.595 Y68.121 E72.64402
G1 X87.665 Y68.121 E72.67430
G1 X107.879 Y88.335 E73.60442
G1 X107.879 Y89.266 E73.63470
G1 X86.734 Y68.121 E74.60763
G1 X85.803 Y68.121 E74.63791
G1 X107.879 Y90.197 E75.65367
G1 X107.879 Y91.127 E75.68395
G1 X92.121 Y75.368 E76.40905
G1 X92.121 Y76.299 E76.43933
G1 X107.879 Y92.058 E77.16443
G1 X107.879 Y92.989 E77.19470
G1 X92.121 Y77.230 E77.91980
G1 X92.121 Y78.160 E77.95008
G1 X107.879 Y93.919 E78.67518
G1 X107.879 Y94.850 E78.70546
G1 X92.121 Y79.091 E79.43056
G1 X92.121 Y80.022 E79.46084
G1 X107.879 Y95.781 E80.18593
G1 X107.879 Y96.711 E80.21621
G1 X92.121 Y80.952 E80.94131
G1 X92.121 Y81.883 E80.97159
G1 X107.879 Y97.642 E81.69669
G1 X107.879 Y98.573 E81.72697
G1 X92.121 Y82.814 E82.45206
G1 X92.121 Y83.744 E82.48234
G1 X107.879 Y99.503 E83.20744
G1 X107.879 Y100.434 E83.23772
G1 X92.121 Y84.675 E83.96282
G1 X92.121 Y85.606 E83.99310
G1 X107.879 Y101.365 E84.71819
G1 X107.879 Y102.295 E84.74847
G1 X92.121 Y86.536 E85.47357
G1 X92.121 Y87.467 E85.50385
G1 X107.879 Y103.226 E86.22895
G1 X107.879 Y104.157 E86.25923
G1 X92.121 Y88.398 E86.98433
G1 X92.121 Y89.328 E87.01460
G1 X107.879 Y105.087 E87.73970
G1 X107.879 Y106.018 E87.76998
G1 X92.121 Y90.259 E88.49508
G1 X92.121 Y91.190 E88.52536
G1 X107.879 Y106.949 E89.25046
G1 X107.879 Y107.879 E89.28074
G1 X92.121 Y92.121 E90.00583
G1 X92.121 Y93.051 E90.03611
G1 X107.879 Y108.810 E90.76121
G1 X107.879 Y109.741 E90.79149
G1 X92.121 Y93.982 E91.51659
G1 X92.121 Y94.913 E91.54687
G1 X107.879 Y110.672 E92.27196
G1 X107.879 Y111.602 E92.30224
G1 X92.121 Y95.843 E93.02734
G1 X92.121 Y96.774 E93.05762
G1 X107.879 Y112.533 E93.78272
G1 X107.879 Y113.464 E93.81300
G1 X92.121 Y97.705 E94.53809
G1 X92.121 Y98.635 E94.56837
G1 X107.879 Y114.394 E95.29347
