; generated by Slic3r 1.1.7 on 2015-04-21 at 13:01:34

; perimeters extrusion width = 0.50mm
; infill extrusion width = 0.52mm
; solid infill extrusion width = 0.52mm
; top infill extrusion width = 0.52mm

G21 ; set units to millimeters
M190 S60 ; wait for bed temperature to be reached
M104 S185 ; set temperature
M106 S255
G28 ; home all axes
G1 Z5 F5000 ; lift nozzle

M109 S185 ; wait for temperature to be reached
G90 ; use absolute coordinates
G92 E0
M82 ; use absolute distances for extrusion
M106 S255
G1 F1800.000 E-1.00000
G92 E0
G1 Z0.350 F7800.000
G1 X79.728 Y61.935 F7800.000
G1 E1.00000 F1800.000
G1 X81.425 Y60.384 E1.07480 F1080.000
G1 X83.549 Y59.503 E1.14960
G1 X85.000 Y59.343 E1.19710
G1 X115.000 Y59.343 E2.17316
G1 X117.265 Y59.740 E2.24796
G1 X119.259 Y60.884 E2.32276 F1080.000
G1 X120.272 Y61.935 E2.37026
G1 X136.272 Y82.685 E3.22275
G1 X137.340 Y84.721 E3.29756
G1 X137.657 Y86.750 E3.36438
G1 X137.657 Y113.250 E4.22656
G1 X137.260 Y115.515 E4.30136
G1 X136.272 Y117.315 E4.36819
G1 X120.272 Y138.065 E5.22068
G1 X118.575 Y139.616 E5.29548
G1 X116.451 Y140.497 E5.37029
G1 X115.000 Y140.657 E5.41778
G1 X85.000 Y140.657 E6.39384
G1 X82.735 Y140.260 E6.46864
G1 X80.741 Y139.116 E6.54344
G1 X79.728 Y138.065 E6.59094
G1 X63.728 Y117.315 E7.44344
G1 X62.660 Y115.279 E7.51824
G1 X62.343 Y113.250 E7.58506
G1 X62.343 Y86.750 E8.44725
G1 X62.740 Y84.485 E8.52205
G1 X63.728 Y82.685 E8.58887
G1 X79.682 Y61.994 E9.43893
G1 F1800.000 E8.43893
G92 E0
G1 X122.007 Y111.657 F7800.000
G1 E1.00000 F1800.000
G1 X77.993 Y111.657 E2.43201 F540.000
G1 X77.993 Y88.343 E3.19054
G1 X122.007 Y88.343 E4.62255
G1 X122.007 Y111.582 E5.37864
G1 X121.350 Y111.000 F7800.000
G1 X78.650 Y111.000 E6.76790 F378.000
G1 X78.650 Y89.000 E7.48367
G1 X121.350 Y89.000 E8.87292
G1 X121.350 Y110.925 E9.58626
G1 X121.350 Y111.500 F7800.000
G1 X113.336 Y112.314 F7800.000
G1 X113.336 Y132.336 E10.23767 F540.000
G1 X86.664 Y132.336 E11.10544
G1 X86.664 Y112.314 E11.75685
G1 X113.261 Y112.314 E12.62218
G1 X122.664 Y111.586 F7800.000
G1 X122.664 Y88.414 E13.37607 F540.000
G1 X129.336 Y88.414 E13.59314
G1 X129.336 Y111.586 E14.34703
G1 X122.739 Y111.586 E14.56166
G1 F1800.000 E13.56166
G92 E0
G1 X113.336 Y87.686 F7800.000
G1 E1.00000 F1800.000
G1 X86.664 Y87.686 E1.86777 F540.000
G1 X86.664 Y67.664 E2.51918
G1 X113.336 Y67.664 E3.38695
G1 X113.336 Y87.611 E4.03592
G1 X77.336 Y88.414 F7800.000
G1 X77.336 Y111.586 E4.78981 F540.000
G1 X70.664 Y111.586 E5.00688
G1 X70.664 Y88.414 E5.76077
G1 X77.261 Y88.414 E5.97540
G1 X86.007 Y87.757 F7800.000
G1 X86.007 Y67.007 E6.65050 F540.000
G1 X113.993 Y67.007 E7.56103
G1 X113.993 Y87.757 E8.23613
G1 X129.993 Y87.757 E8.75670
G1 X129.993 Y112.243 E9.55335
G1 X113.993 Y112.243 E10.07391
G1 X113.993 Y132.993 E10.74902
G1 X86.007 Y132.993 E11.65954
G1 X86.007 Y112.243 E12.33465
G1 X70.007 Y112.243 E12.85521
G1 X70.007 Y87.757 E13.65186
G1 X85.932 Y87.757 E14.16999
G1 X85.350 Y87.100 F7800.000
G1 X85.350 Y66.350 E14.84509 F378.000
G1 X114.650 Y66.350 E15.79838
G1 X114.650 Y87.100 E16.47348
G1 X130.650 Y87.100 E16.99404
G1 X130.650 Y112.900 E17.83345
G1 X114.650 Y112.900 E18.35402
G1 X114.650 Y133.650 E19.02912
G1 X85.350 Y133.650 E19.98240
G1 X85.350 Y112.900 E20.65751
G1 X69.350 Y112.900 E21.17807
G1 X69.350 Y87.100 E22.01748
G1 X85.275 Y87.100 E22.53560
G1 X85.850 Y87.100 F7800.000
G1 F1800.000 E21.53560
G92 E0
G1 X112.839 Y112.771 F7800.000
G1 E1.00000 F1800.000
G1 X112.879 Y112.811 E1.00184 F1080.000
G1 X112.879 Y113.744 E1.03220
G1 X111.906 Y112.771 E1.07697
G1 X110.973 Y112.771 E1.10733
G1 X112.879 Y114.677 E1.19504
G1 X112.879 Y115.610 E1.22539
G1 X110.040 Y112.771 E1.35603
G1 X109.107 Y112.771 E1.38639
G1 X112.879 Y116.543 E1.55996
G1 X112.879 Y117.476 E1.59032
G1 X108.174 Y112.771 E1.80682
G1 X107.241 Y112.771 E1.83718
G1 X112.879 Y118.409 E2.09662
G1 X112.879 Y119.342 E2.12698
G1 X106.308 Y112.771 E2.42935
G1 X105.375 Y112.771 E2.45970
G1 X112.879 Y120.275 E2.80501
G1 X112.879 Y121.208 E2.83536
G1 X104.442 Y112.771 E3.22360
G1 X103.509 Y112.771 E3.25396
G1 X112.879 Y122.141 E3.68512
G1 X112.879 Y123.074 E3.71548
G1 X102.576 Y112.771 E4.18958
G1 X101.643 Y112.771 E4.21994
G1 X112.879 Y124.008 E4.73697
G1 X112.879 Y124.941 E4.76733
G1 X100.709 Y112.771 E5.32730
G1 X99.776 Y112.771 E5.35766
G1 X112.879 Y125.874 E5.96055
G1 X112.879 Y126.807 E5.99091
G1 X98.843 Y112.771 E6.63674
G1 X97.910 Y112.771 E6.66710
G1 X112.879 Y127.740 E7.35586
G1 X112.879 Y128.673 E7.38622
G1 X96.977 Y112.771 E8.11792
G1 X96.044 Y112.771 E8.14828
G1 X112.879 Y129.606 E8.92291
G1 X112.879 Y130.539 E8.95326
G1 X95.111 Y112.771 E9.77083
G1 X94.178 Y112.771 E9.80118
G1 X112.879 Y131.472 E10.66168
G1 X112.354 Y131.879 E10.68332
G1 X93.245 Y112.771 E11.56255
G1 X92.312 Y112.771 E11.59291
G1 X111.421 Y131.879 E12.47215
G1 X110.488 Y131.879 E12.50251
G1 X91.379 Y112.771 E13.38174
G1 X90.446 Y112.771 E13.41210
G1 X109.554 Y131.879 E14.29134
G1 X108.621 Y131.879 E14.32170
G1 X89.512 Y112.771 E15.20093
G1 X88.579 Y112.771 E15.23129
G1 X107.688 Y131.879 E16.11053
G1 X106.755 Y131.879 E16.14088
G1 X87.646 Y112.771 E17.02012
G1 X87.121 Y113.178 E17.04176
G1 X105.822 Y131.879 E17.90225
G1 X104.889 Y131.879 E17.93261
G1 X87.121 Y114.111 E18.75017
G1 X87.121 Y115.044 E18.78053
G1 X103.956 Y131.879 E19.55516
G1 X103.023 Y131.879 E19.58552
G1 X87.121 Y115.977 E20.31722
G1 X87.121 Y116.910 E20.34757
G1 X102.090 Y131.879 E21.03634
G1 X101.157 Y131.879 E21.06670
G1 X87.121 Y117.843 E21.71253
G1 X87.121 Y118.776 E21.74288
G1 X100.224 Y131.879 E22.34578
G1 X99.291 Y131.879 E22.37614
G1 X87.121 Y119.709 E22.93611
G1 X87.121 Y120.643 E22.96646
G1 X98.358 Y131.879 E23.48350
G1 X97.424 Y131.879 E23.51386
G1 X87.121 Y121.576 E23.98796
G1 X87.121 Y122.509 E24.01831
G1 X96.491 Y131.879 E24.44948
G1 X95.558 Y131.879 E24.47984
G1 X87.121 Y123.442 E24.86807
G1 X87.121 Y124.375 E24.89843
G1 X94.625 Y131.879 E25.24373
G1 X93.692 Y131.879 E25.27409
G1 X87.121 Y125.308 E25.57646
G1 X87.121 Y126.241 E25.60682
G1 X92.759 Y131.879 E25.86626
G1 X91.826 Y131.879 E25.89661
G1 X87.121 Y127.174 E26.11312
G1 X87.121 Y128.107 E26.14348
G1 X90.893 Y131.879 E26.31705
G1 X89.960 Y131.879 E26.34741
G1 X87.121 Y129.040 E26.47804
G1 X87.121 Y129.973 E26.50840
G1 X89.027 Y131.879 E26.59611
G1 X88.094 Y131.879 E26.62647
G1 X87.121 Y130.906 E26.67124
G1 X87.121 Y131.839 E26.70160
G1 X87.161 Y131.879 E26.70344
G1 F1800.000 E25.70344
G92 E0
G1 X123.161 Y111.129 F7800.000
G1 E1.00000 F1800.000
G1 X123.121 Y111.089 E1.00184 F1080.000
G1 X123.121 Y110.158 E1.03214
G1 X124.092 Y111.129 E1.07683
G1 X125.023 Y111.129 E1.10713
G1 X123.121 Y109.227 E1.19467
G1 X123.121 Y108.296 E1.22497
G1 X125.954 Y111.129 E1.35535
G1 X126.886 Y111.129 E1.38565
G1 X123.121 Y107.364 E1.55889
G1 X123.121 Y106.433 E1.58919
G1 X127.817 Y111.129 E1.80527
G1 X128.748 Y111.129 E1.83557
G1 X123.121 Y105.502 E2.09451
G1 X123.121 Y104.571 E2.12481
G1 X128.879 Y110.330 E2.38979
G1 X128.879 Y109.398 E2.42008
G1 X123.121 Y103.639 E2.68506
G1 X123.121 Y102.708 E2.71536
G1 X128.879 Y108.467 E2.98034
G1 X128.879 Y107.536 E3.01064
G1 X123.121 Y101.777 E3.27562
G1 X123.121 Y100.846 E3.30592
G1 X128.879 Y106.605 E3.57090
G1 X128.879 Y105.673 E3.60120
G1 X123.121 Y99.914 E3.86618
G1 X123.121 Y98.983 E3.89648
G1 X128.879 Y104.742 E4.16146
G1 X128.879 Y103.811 E4.19176
G1 X123.121 Y98.052 E4.45674
G1 X123.121 Y97.121 E4.48703
G1 X128.879 Y102.879 E4.75201
G1 X128.879 Y101.948 E4.78231
G1 X123.121 Y96.189 E5.04729
G1 X123.121 Y95.258 E5.07759
G1 X128.879 Y101.017 E5.34257
G1 X128.879 Y100.086 E5.37287
G1 X123.121 Y94.327 E5.63785
G1 X123.121 Y93.395 E5.66815
G1 X128.879 Y99.154 E5.93313
G1 X128.879 Y98.223 E5.96343
G1 X123.121 Y92.464 E6.22841
G1 X123.121 Y91.533 E6.25871
G1 X128.879 Y97.292 E6.52369
G1 X128.879 Y96.361 E6.55398
G1 X123.121 Y90.602 E6.81896
G1 X123.121 Y89.670 E6.84926
G1 X128.879 Y95.429 E7.11424
G1 X128.879 Y94.498 E7.14454
G1 X123.252 Y88.871 E7.40348
G1 X124.183 Y88.871 E7.43378
G1 X128.879 Y93.567 E7.64986
G1 X128.879 Y92.636 E7.68016
G1 X125.114 Y88.871 E7.85340
G1 X126.046 Y88.871 E7.88370
G1 X128.879 Y91.704 E8.01408
G1 X128.879 Y90.773 E8.04438
G1 X126.977 Y88.871 E8.13192
G1 X127.908 Y88.871 E8.16222
G1 X128.879 Y89.842 E8.20691
G1 X128.879 Y88.911 E8.23721
G1 X128.839 Y88.871 E8.23905
G1 F1800.000 E7.23905
G92 E0
G1 X112.839 Y68.121 F7800.000
G1 E1.00000 F1800.000
G1 X112.879 Y68.161 E1.00184 F1080.000
G1 X112.879 Y69.094 E1.03220
G1 X111.906 Y68.121 E1.07697
G1 X110.973 Y68.121 E1.10733
G1 X112.879 Y70.027 E1.19504
G1 X112.879 Y70.960 E1.22539
G1 X110.040 Y68.121 E1.35603
G1 X109.107 Y68.121 E1.38639
G1 X112.879 Y71.893 E1.55996
G1 X112.879 Y72.826 E1.59032
G1 X108.174 Y68.121 E1.80682
G1 X107.241 Y68.121 E1.83718
G1 X112.879 Y73.759 E2.09662
G1 X112.879 Y74.692 E2.12698
G1 X106.308 Y68.121 E2.42935
G1 X105.375 Y68.121 E2.45970
G1 X112.879 Y75.625 E2.80501
G1 X112.879 Y76.558 E2.83536
G1 X104.442 Y68.121 E3.22360
G1 X103.509 Y68.121 E3.25396
G1 X112.879 Y77.491 E3.68512
G1 X112.879 Y78.424 E3.71548
G1 X102.576 Y68.121 E4.18958
G1 X101.643 Y68.121 E4.21994
G1 X112.879 Y79.358 E4.73697
G1 X112.879 Y80.291 E4.76733
G1 X100.709 Y68.121 E5.32730
G1 X99.776 Y68.121 E5.35766
G1 X112.879 Y81.224 E5.96055
G1 X112.879 Y82.157 E5.99091
G1 X98.843 Y68.121 E6.63674
G1 X97.910 Y68.121 E6.66710
G1 X112.879 Y83.090 E7.35587
G1 X112.879 Y84.023 E7.38622
G1 X96.977 Y68.121 E8.11792
G1 X96.044 Y68.121 E8.14828
G1 X112.879 Y84.956 E8.92291
G1 X112.879 Y85.889 E8.95327
G1 X95.111 Y68.121 E9.77083
G1 X94.178 Y68.121 E9.80119
G1 X112.879 Y86.822 E10.66168
G1 X112.354 Y87.229 E10.68332
G1 X93.245 Y68.121 E11.56255
G1 X92.312 Y68.121 E11.59291
G1 X111.421 Y87.229 E12.47215
G1 X110.488 Y87.229 E12.50251
G1 X91.379 Y68.121 E13.38174
G1 X90.446 Y68.121 E13.41210
G1 X109.554 Y87.229 E14.29134
G1 X108.621 Y87.229 E14.32170
G1 X89.512 Y68.121 E15.20093
G1 X88.579 Y68.121 E15.23129
G1 X107.688 Y87.229 E16.11053
G1 X106.755 Y87.229 E16.14089
G1 X87.646 Y68.121 E17.02012
G1 X87.121 Y68.528 E17.04176
G1 X105.822 Y87.229 E17.90225
G1 X104.889 Y87.229 E17.93261
G1 X87.121 Y69.461 E18.75017
G1 X87.121 Y70.394 E18.78053
G1 X103.956 Y87.229 E19.55516
G1 X103.023 Y87.229 E19.58552
G1 X87.121 Y71.327 E20.31722
G1 X87.121 Y72.260 E20.34757
G1 X102.090 Y87.229 E21.03634
G1 X101.157 Y87.229 E21.06670
G1 X87.121 Y73.193 E21.71253
G1 X87.121 Y74.126 E21.74289
G1 X100.224 Y87.229 E22.34578
G1 X99.291 Y87.229 E22.37614
G1 X87.121 Y75.059 E22.93611
G1 X87.121 Y75.993 E22.96647
G1 X98.358 Y87.229 E23.48350
G1 X97.424 Y87.229 E23.51386
G1 X87.121 Y76.926 E23.98796
G1 X87.121 Y77.859 E24.01831
G1 X96.491 Y87.229 E24.44948
G1 X95.558 Y87.229 E24.47984
G1 X87.121 Y78.792 E24.86807
G1 X87.121 Y79.725 E24.89843
G1 X94.625 Y87.229 E25.24373
G1 X93.692 Y87.229 E25.27409
G1 X87.121 Y80.658 E25.57646
G1 X87.121 Y81.591 E25.60682
G1 X92.759 Y87.229 E25.86626
G1 X91.826 Y87.229 E25.89661
G1 X87.121 Y82.524 E26.11312
G1 X87.121 Y83.457 E26.14348
G1 X90.893 Y87.229 E26.31705
G1 X89.960 Y87.229 E26.34741
G1 X87.121 Y84.390 E26.47804
G1 X87.121 Y85.323 E26.50840
G1 X89.027 Y87.229 E26.59611
G1 X88.094 Y87.229 E26.62647
G1 X87.121 Y86.256 E26.67124
G1 X87.121 Y87.189 E26.70160
G1 X87.161 Y87.229 E26.70344
G1 X76.839 Y88.871 F7800.000
G1 X76.879 Y88.911 E26.70528 F1080.000
G1 X76.879 Y89.842 E26.73558
G1 X75.908 Y88.871 E26.78027
G1 X74.977 Y88.871 E26.81057
G1 X76.879 Y90.773 E26.89810
G1 X76.879 Y91.704 E26.92840
G1 X74.046 Y88.871 E27.05879
G1 X73.114 Y88.871 E27.08909
G1 X76.879 Y92.636 E27.26233
G1 X76.879 Y93.567 E27.29263
G1 X72.183 Y88.871 E27.50871
G1 X71.252 Y88.871 E27.53901
G1 X76.879 Y94.498 E27.79795
G1 X76.879 Y95.429 E27.82824
G1 X71.121 Y89.670 E28.09322
G1 X71.121 Y90.602 E28.12352
G1 X76.879 Y96.361 E28.38850
G1 X76.879 Y97.292 E28.41880
G1 X71.121 Y91.533 E28.68378
G1 X71.121 Y92.464 E28.71408
G1 X76.879 Y98.223 E28.97906
G1 X76.879 Y99.154 E29.00936
G1 X71.121 Y93.395 E29.27434
G1 X71.121 Y94.327 E29.30464
G1 X76.879 Y100.086 E29.56962
G1 X76.879 Y101.017 E29.59992
G1 X71.121 Y95.258 E29.86490
G1 X71.121 Y96.189 E29.89519
G1 X76.879 Y101.948 E30.16017
G1 X76.879 Y102.879 E30.19047
G1 X71.121 Y97.121 E30.45545
G1 X71.121 Y98.052 E30.48575
G1 X76.879 Y103.811 E30.75073
G1 X76.879 Y104.742 E30.78103
G1 X71.121 Y98.983 E31.04601
G1 X71.121 Y99.914 E31.07631
G1 X76.879 Y105.673 E31.34129
G1 X76.879 Y106.605 E31.37159
G1 X71.121 Y100.846 E31.63657
G1 X71.121 Y101.777 E31.66687
G1 X76.879 Y107.536 E31.93185
G1 X76.879 Y108.467 E31.96215
G1 X71.121 Y102.708 E32.22713
G1 X71.121 Y103.639 E32.25742
G1 X76.879 Y109.398 E32.52240
G1 X76.879 Y110.330 E32.55270
G1 X71.121 Y104.571 E32.81768
G1 X71.121 Y105.502 E32.84798
G1 X76.748 Y111.129 E33.10692
G1 X75.817 Y111.129 E33.13722
G1 X71.121 Y106.433 E33.35330
G1 X71.121 Y107.364 E33.38360
G1 X74.886 Y111.129 E33.55684
G1 X73.954 Y111.129 E33.58714
G1 X71.121 Y108.296 E33.71752
G1 X71.121 Y109.227 E33.74782
G1 X73.023 Y111.129 E33.83536
G1 X72.092 Y111.129 E33.86566
G1 X71.121 Y110.158 E33.91035
G1 X71.121 Y111.089 E33.94065
G1 X71.161 Y111.129 E33.94249
G1 F1800.000 E32.94249
G92 E0
G1 Z0.750 F7800.000
G1 X78.250 Y88.600 F7800.000
G1 E1.00000 F1800.000
G1 X121.750 Y88.600 E2.23080 F1800.000
G1 X121.750 Y111.400 E2.87591
G1 X78.250 Y111.400 E4.10670
G1 X78.250 Y88.675 E4.74969
G1 X78.750 Y89.100 F7800.000
G1 X121.250 Y89.100 E5.95219 F1260.000
G1 X121.250 Y110.900 E6.56901
G1 X78.750 Y110.900 E7.77151
G1 X78.750 Y89.175 E8.38620
G1 X78.750 Y88.600 F7800.000
G1 F1800.000 E7.38620
G92 E0
G1 X86.250 Y111.900 F7800.000
G1 E1.00000 F1800.000
G1 X113.750 Y111.900 E1.77809 F1800.000
G1 X113.750 Y132.750 E2.36803
G1 X86.250 Y132.750 E3.14612
G1 X86.250 Y111.975 E3.73393
G1 X122.250 Y112.000 F7800.000
G1 X122.250 Y88.000 E4.41299 F1800.000
G1 X129.750 Y88.000 E4.62520
G1 X129.750 Y112.000 E5.30426
G1 X122.325 Y112.000 E5.51434
G1 F1800.000 E4.51434
G92 E0
G1 X113.750 Y88.100 F7800.000
G1 E1.00000 F1800.000
G1 X86.250 Y88.100 E1.77809 F1800.000
G1 X86.250 Y67.250 E2.36803
G1 X113.750 Y67.250 E3.14612
G1 X113.750 Y88.025 E3.73393
G1 X77.750 Y88.000 F7800.000
G1 X77.750 Y112.000 E4.41299 F1800.000
G1 X70.250 Y112.000 E4.62520
G1 X70.250 Y88.000 E5.30426
G1 X77.675 Y88.000 E5.51434
G1 X85.750 Y87.500 F7800.000
G1 X85.750 Y66.750 E6.10145 F1800.000
G1 X114.250 Y66.750 E6.90783
G1 X114.250 Y87.500 E7.49494
G1 X130.250 Y87.500 E7.94764
G1 X130.250 Y112.500 E8.65500
G1 X114.250 Y112.500 E9.10771
G1 X114.250 Y133.250 E9.69481
G1 X85.750 Y133.250 E10.50120
G1 X85.750 Y112.500 E11.08830
G1 X69.750 Y112.500 E11.54101
G1 X69.750 Y87.500 E12.24836
G1 X85.675 Y87.500 E12.69895
G1 X85.250 Y87.000 F7800.000
G1 X85.250 Y66.250 E13.28605 F1260.000
G1 X114.750 Y66.250 E14.12073
G1 X114.750 Y87.000 E14.70784
G1 X130.750 Y87.000 E15.16055
G1 X130.750 Y113.000 E15.89620
G1 X114.750 Y113.000 E16.34890
G1 X114.750 Y133.750 E16.93601
G1 X85.250 Y133.750 E17.77069
G1 X85.250 Y113.000 E18.35779
G1 X69.250 Y113.000 E18.81050
G1 X69.250 Y87.000 E19.54615
G1 X85.175 Y87.000 E19.99673
G1 X85.750 Y87.000 F7800.000
G1 F1800.000 E18.99673
G92 E0
G1 X86.637 Y112.247 F7800.000
G1 E1.00000 F1800.000
G1 X86.597 Y112.287 E1.00166 F3600.000
G1 X86.597 Y113.031 E1.02355
G1 X87.381 Y112.247 E1.05616
G1 X88.125 Y112.247 E1.07804
G1 X86.597 Y113.775 E1.14159
G1 X86.597 Y114.519 E1.16348
G1 X88.869 Y112.247 E1.25798
G1 X89.614 Y112.247 E1.27986
G1 X86.597 Y115.264 E1.40531
G1 X86.597 Y116.008 E1.42719
G1 X90.358 Y112.247 E1.58359
G1 X91.102 Y112.247 E1.60547
G1 X86.597 Y116.752 E1.79281
G1 X86.597 Y117.496 E1.81470
G1 X91.846 Y112.247 E2.03298
G1 X92.590 Y112.247 E2.05487
G1 X86.597 Y118.240 E2.30410
G1 X86.597 Y118.984 E2.32598
G1 X93.334 Y112.247 E2.60616
G1 X94.079 Y112.247 E2.62805
G1 X86.597 Y119.729 E2.93917
G1 X86.597 Y120.473 E2.96106
G1 X94.823 Y112.247 E3.30313
G1 X95.567 Y112.247 E3.32501
G1 X86.597 Y121.217 E3.69803
G1 X86.597 Y121.961 E3.71992
G1 X96.311 Y112.247 E4.12388
G1 X97.055 Y112.247 E4.14577
G1 X86.597 Y122.705 E4.58068
G1 X86.597 Y123.449 E4.60256
G1 X97.799 Y112.247 E5.06842
G1 X98.544 Y112.247 E5.09030
G1 X86.597 Y124.194 E5.58711
